public/assets/clouds.svg

<svg width="2223" height="219" viewBox="0 0 2223 219" fill="none" xmlns="http://www.w3.org/2000/svg">
<path d="M2153.5 0L2101 18L2093 26.5H2056L2093 51.5H2145L2167 66L2223 59.5L2206 42V26.5L2177.5 18L2153.5 0Z" fill="#FFF1F0"/>
<path d="M1708.02 218.053L1760.52 200.053L1768.52 191.553H1805.52L1768.52 166.553H1716.52L1694.52 152.053L1638.52 158.553L1655.52 176.053V191.553L1684.02 200.053L1708.02 218.053Z" fill="#FFF1F0"/>
<path d="M153.72 18.7217L106.899 41.0898L102.218 35.368L91.8143 47.3325L69.4458 51.4941L58.0024 41.0898L40.3148 35.368L35.6315 51.4941L16.3858 54.0951L0.78125 61.898L7.02483 76.4635V89.9887L35.6315 93.1098L58.0024 96.231L78.29 89.9887L106.899 96.231H143.315L160.481 93.1098L188.051 96.231L203.657 86.8675L218.223 72.8222V54.0951L196.375 47.3325L176.087 35.368L153.72 18.7217Z" fill="#FFF1F0"/>
<path d="M529.437 105.991L576.257 128.359L580.938 122.638L591.342 134.602L613.71 138.764L625.154 128.359L642.841 122.638L647.525 138.764L666.77 141.365L682.375 149.168L676.131 163.733V177.258L647.525 180.379L625.154 183.501L604.866 177.258L576.257 183.501H539.842L522.675 180.379L495.105 183.501L479.499 174.137L464.933 160.092V141.365L486.782 134.602L507.069 122.638L529.437 105.991Z" fill="#FFF1F0"/>
</svg>

<svg width="2223" height="219" fill="none" xmlns="http://www.w3.org/2000/svg"><path d="M2153.5 0L2101 18l-8 8.5h-37l37 25h52l22 14.5 56-6.5-17-17.5V26.5l-28.5-8.5-24-18zM1708.02 218.053l52.5-18 8-8.5h37l-37-25h-52l-22-14.5-56 6.5 17 17.5v15.5l28.5 8.5 24 18zM153.72 18.722L106.899 41.09l-4.681-5.722-10.404 11.965-22.368 4.161L58.002 41.09l-17.687-5.722-4.683 16.126-19.246 2.601L.78 61.898l6.244 14.565V89.99l28.607 3.12 22.37 3.122 20.288-6.242 28.609 6.242h36.416l17.166-3.121 27.57 3.121 15.606-9.363 14.566-14.046V54.095l-21.848-6.762-20.288-11.965-22.367-16.646zM529.437 105.991l46.82 22.368 4.681-5.721 10.404 11.964 22.368 4.162 11.444-10.405 17.687-5.721 4.684 16.126 19.245 2.601 15.605 7.803-6.244 14.565v13.525l-28.606 3.121-22.371 3.122-20.288-6.243-28.609 6.243h-36.415l-17.167-3.122-27.57 3.122-15.606-9.364-14.566-14.045v-18.727l21.849-6.763 20.287-11.964 22.368-16.647z" fill="#FFF1F0"/></svg>
